packages/swarm-icons/src/icons/solid/Letter.svg

<svg xmlns="http://www.w3.org/2000/svg" width="18" height="18" viewBox="0 0 18 18">
  <path fill="#A2A2A2" d="M16.1155256,4.66726713 L9,10.3596876 L1.88447444,4.66726713 C2.32726319,3.96587661 3.10922594,3.5 4,3.5 L14,3.5 C14.8907741,3.5 15.6727368,3.96587661 16.1155256,4.66726713 Z M16.4769086,5.65878552 C16.4921344,5.77034967 16.5,5.88425628 16.5,6 L16.5,12 C16.5,13.3807119 15.3807119,14.5 14,14.5 L4,14.5 C2.61928813,14.5 1.5,13.3807119 1.5,12 L1.5,6 C1.5,5.88425628 1.50786558,5.77034967 1.52309137,5.65878552 L8.68765248,11.3904344 C8.8702618,11.5365219 9.1297382,11.5365219 9.31234752,11.3904344 L16.4769086,5.65878552 Z"/>
</svg>

<svg xmlns="http://www.w3.org/2000/svg" width="18" height="18"><path fill="#A2A2A2" d="M16.116 4.667L9 10.36 1.884 4.667A2.498 2.498 0 014 3.5h10c.89 0 1.673.466 2.116 1.167zm.36.992c.016.111.024.225.024.341v6a2.5 2.5 0 01-2.5 2.5H4A2.5 2.5 0 011.5 12V6c0-.116.008-.23.023-.341l7.165 5.731a.5.5 0 00.624 0l7.165-5.731z"/></svg>
